X: 20721
T: Johnny Cope
R: polka
M: 2/4
K: Bminor
|:fB B/c/d/e/|fBB c/B/|AA A/B/c/d/|eaec|
dc/d/ ed/e/|fac B/A/|Ba f/e/d/c/|B2B2:|
Ad dA|d/e/f/g/ a/f/e/d/|cA eA|c/d/e/f/ ed/c/|
dc/d/ ed/e/|fac B/A/|Ba f/e/d/c/|B2B2:|

